X:1
T:Title
%%score { 1 | ( 2 3 ) }
L:1/8
M:6/8
K:F
V:1 treble nm="Grand Piano"
V:2 bass 
V:3 bass 
V:1
 z3 z2[Q:1/4=100] C | F2 F FGA | c2 c c2 A | [EG]2 [EG] [Ec]2 [EB] |[M:5/8] B2 A A2 |[M:1/8] C | %6
[M:3/4] F2 FF GA | c2 cc AA | G2 e e2 d |[M:5/8] [Ec]-[Ec]- [Ec]3 |[M:1/8] [Ec] | %11
[M:3/4] c2 d c2 A | [Ac]2 [GB] [GB]2 [GB] | [EB]2 [Ec] [EB]2 [CEG] |[M:5/8] d2 c c2 |[M:1/8] C | %16
[M:3/4] F2 F[EG] [DF][EG] |[M:13/16] [FA]-<[FA][Gc][Ff]3/2[F=B][FB] | %18
[M:3/4] [Fc]2 [Fd] [FA]2 [EG][Q:1/4=98][Q:1/4=97][Q:1/4=95][Q:1/4=94][Q:1/4=92][Q:1/4=91][Q:1/4=89][Q:1/4=88][Q:1/4=86][Q:1/4=84][Q:1/4=83][Q:1/4=81][Q:1/4=80][Q:1/4=78][Q:1/4=77] | %19
[M:5/8] F-F- F3 |] %20
V:2
 z3 z2 [F,A,] | [F,A,C]2 [C,A,C] [F,C]-[F,B,C][K:treble][F,CF] | [F,A,F]2 [G,B,E] [A,CF]2 [F,CF] | %3
 [C,C]2 [C,C] [C,G,]2 [C,C] |[M:5/8] [F,DF]2 [F,CF] [F,CF]2 |[M:1/8] [E,B,] | %6
[M:3/4] [F,A,C]2 [C,A,C][F,C]- [F,B,C][K:treble][F,CF] | [F,A,F]2 [G,B,E][A,CF] [F,CF][F,CF] | %8
 [G,CE]2 [G,G] [G,A,G]2 [G,=B,F] |[M:5/8][K:bass] [C,C]-[C,C]- [C,C]3 |[M:1/8] [C,B,] | %11
[M:3/4] [F,A,F]2 [F,B,F] [F,A,F]2 [F,CF] | [C,C]2 [C,C] [C,C]2 [C,C] | [C,G,]2 [C,A,] C,2 C, | %14
[M:5/8] [F,B,F]2 [F,A,F] [F,A,F]2 |[M:1/8] [F,A,] |[M:3/4] [F,A,C]2 [F,A,C] [C,C]2 [C,C] | %17
[M:13/16] [F,C]-<[F,C][E,C][D,A,]3/2[^C,_A,][C,A,] |[M:3/4] [C,A,]2 [C,B,] [C,C]2 [C,B,] | %19
[M:5/8] [F,A,]-[F,A,]- [F,A,]3 |] %20
V:3
 x6 | z3 .A,3[K:treble] | x6 | x6 |[M:5/8] x5 |[M:1/8] x |[M:3/4] z2 z A, z2[K:treble] | x6 | x6 | %9
[M:5/8][K:bass] x5 |[M:1/8] x |[M:3/4] x6 | x6 | x6 |[M:5/8] x5 |[M:1/8] x |[M:3/4] x6 | %17
[M:13/16] x13/2 |[M:3/4] x6 |[M:5/8] x5 |] %20

